site/images/nightwatch-api-logo.svg

<?xml version="1.0" encoding="UTF-8" standalone="no"?>
<svg
   xmlns:svg="http://www.w3.org/2000/svg"
   xmlns="http://www.w3.org/2000/svg"
   viewBox="0 0 93 101"
   version="1.1">
  <g
     id="body">
    <path
       d="M23.4087805,39.659638 C24.3705366,37.740181 25.6271707,35.6287783 28.0134146,35.4688235 C27.5688293,36.2777376 27.0199024,37.0226697 26.4301463,37.7310407 C26.4165366,38.649638 26.412,39.5682353 26.4256098,40.4868326 C27.791122,39.6824887 29.0613659,37.808733 30.8306341,38.4714027 C30.4903902,39.9338462 28.9660976,40.8844344 28.9434146,42.5068326 C30.7217561,42.9866968 32.418439,43.7133484 34.0516098,44.5633937 C36.1883415,43.8778733 38.238878,42.9364253 40.3982927,42.3423077 C41.0379512,42.0955204 41.9089756,42.2646154 42.1811707,42.959276 C42.2356098,45.8750226 41.2466341,48.7085068 41.2602439,51.6196833 C41.8409268,53.1232579 42.7754634,54.4577376 43.3833659,55.9521719 C44.4177073,58.1458371 44.8486829,60.5588688 45.756,62.8028054 C46.8130244,70.128733 46.3321463,77.8339819 43.1656098,84.6069231 C41.9316585,87.5363801 39.8992683,89.990543 38.0937073,92.5680995 C36.8189268,93.2307692 35.712,94.1676471 34.5823902,95.0496833 C39.99,95.0679638 45.3976098,95.0542534 50.8052195,95.0588235 C50.8097561,97.0376923 50.8097561,99.0165611 50.8097561,101 L0,101 L0,95.0588235 C5.62990244,95.0542534 11.2552683,95.0679638 16.8851707,95.0542534 C15.2656098,93.8385973 13.7957561,92.4447059 12.1852683,91.2244796 C10.23,88.1442081 8.14770732,85.0822172 7.07253659,81.5495023 C5.12634146,76.1613122 5.11726829,70.3435294 5.41214634,64.6902715 C6.14707317,62.5148869 6.44195122,60.2069683 7.254,58.0544344 C7.76663415,56.4868778 8.61497561,55.0518552 9.13668293,53.4888688 C8.94160976,49.7459276 7.92541463,46.0715385 7.9662439,42.3103167 C11.1237073,42.1229412 13.8093659,44.1657919 16.817122,44.7736199 C18.9130244,43.9327149 20.9181951,42.8495928 23.141122,42.3605882 C22.1839024,41.0992308 19.8793171,40.0892308 20.7321951,38.210905 C21.630439,38.6770588 22.5286829,39.1523529 23.4087805,39.659638 L23.4087805,39.659638 Z"
       id="path3787"
       fill="#512D14" />
    <path
       d="M14.7121463,50.5457014 C19.2986341,48.9918552 24.234439,52.2412217 25.6725366,56.6651131 C26.8339024,54.1743891 28.5940976,51.779638 31.2343902,50.7787783 C34.4825854,49.389457 38.424878,50.4862896 40.7158537,53.1278281 C44.7398049,57.4968778 44.4449268,65.1472851 39.9582439,69.0867421 C38.579122,70.3846606 36.750878,71.0107692 34.9271707,71.3535294 C38.447561,73.931086 40.7067805,78.3184163 40.1850732,82.7423077 C39.6452195,88.7474661 34.3419512,93.5186878 28.5396585,94.2361991 C22.2837073,95.2690498 15.3427317,91.6906335 13.2241463,85.5255204 C11.3097073,80.4252489 13.5099512,74.4520814 17.8514634,71.37181 C14.1405366,71.4906335 10.5883902,69.2238462 9.06863415,65.8236652 C6.28317073,60.3852036 8.66941463,52.4697285 14.7121463,50.5457014 L14.7121463,50.5457014 Z"
       id="path3789"
       fill="#FFFFFF" />
    <path
       id="beak"
       d="M22.986878,64.8959276 C24.3841463,63.7671041 26.6206829,63.6482805 28.1041463,64.6628507 C28.8662927,65.1838462 29.5966829,65.750543 30.3769756,66.2532579 C30.3497561,66.8428054 30.3225366,67.4369231 30.2998537,68.0264706 C29.0613659,69.2284163 27.9181463,70.530905 26.6161463,71.6642986 C26.1125854,72.180724 25.1689756,72.080181 24.7062439,71.5500452 C23.5993171,70.5171946 22.5286829,69.4477828 21.498878,68.34181 C20.9045854,67.839095 21.0905854,66.9799095 21.2448293,66.32181 C21.8119024,65.8373756 22.3835122,65.348371 22.986878,64.8959276 L22.986878,64.8959276 Z"
       fill="#FF7F14" />
    <path
       id="left-wing"
       d="M2.21385366,77.7060181 C1.41541463,73.158733 2.65843902,68.3646606 5.41214634,64.6902715 C5.11726829,70.3435294 5.12634146,76.1613122 7.07253659,81.5495023 C8.14770732,85.0822172 10.23,88.1442081 12.1852683,91.2244796 C7.16780488,88.4321267 3.17560976,83.4780995 2.21385366,77.7060181 L2.21385366,77.7060181 Z"
       fill="#7A441E" />
    <path
       id="right-wing"
       d="M45.756,62.8028054 C50.1519512,67.0941629 51.9302927,73.899095 50.088439,79.7991403 C48.3327805,85.648914 43.5466829,90.1550679 38.0937073,92.5680995 C39.8992683,89.990543 41.9316585,87.5363801 43.1656098,84.6069231 C46.3321463,77.8339819 46.8130244,70.128733 45.756,62.8028054 L45.756,62.8028054 Z"
       fill="#7A441E" />
  </g>
  <g
     id="eyes">
    <path
       d="M27.6232683,57.1449774 C28.4670732,54.709095 31.1300488,52.7804977 33.720439,53.7219457 C37.6944878,55.2346606 38.6244878,60.8285068 36.456,64.1875566 C35.3037073,66.2852489 32.5545366,67.2586878 30.3769756,66.2532579 C29.5966829,65.750543 28.8662927,65.1838462 28.1041463,64.6628507 C27.3465366,62.2543891 26.4709756,59.59 27.6232683,57.1449774 L27.6232683,57.1449774 Z"
       id="path3795"
       fill="#AFDFEC" />
    <path
       d="M16.4950244,54.608552 C18.9447805,53.3700452 21.9207805,54.8507692 22.9732683,57.2592308 C24.2661951,59.6494118 23.6446829,62.418914 22.986878,64.8959276 C22.3835122,65.348371 21.8119024,65.8373756 21.2448293,66.32181 C19.6479512,67.7248416 17.0847805,67.5968778 15.5287317,66.2029864 C12.0763902,63.2780995 12.4756098,56.8342081 16.4950244,54.608552 L16.4950244,54.608552 Z"
       id="path3797"
       fill="#AFDFEC" />
    <path
       d="M17.4885366,56.9621719 C20.0199512,55.9978733 22.0115122,58.9456109 21.7665366,61.239819 C21.8209756,63.3557919 20.0517073,65.9150679 17.7153659,65.2386878 C14.4081951,63.9864706 14.3265366,58.4474661 17.4885366,56.9621719 L17.4885366,56.9621719 Z"
       id="path3799"
       fill="#000000" />
    <path
       d="M31.4793659,56.9164706 C33.8066341,56.1258371 35.657561,58.7079638 35.6258049,60.8239367 C35.8118049,62.9627602 34.2421463,65.7642534 31.8014634,65.2935294 C28.2266341,64.2880995 28.0950732,58.278371 31.4793659,56.9164706 L31.4793659,56.9164706 Z"
       id="path3801"
       fill="#000000" />
    <path
       d="M18.2642927,57.739095 C19.6207317,56.5097285 21.4172195,58.9044796 19.8657073,59.8550679 C18.5500976,60.8147964 17.034878,58.7399548 18.2642927,57.739095 L18.2642927,57.739095 Z"
       id="path3803"
       fill="#FFFFFF" />
    <path
       d="M30.9485854,57.6476923 C31.697122,57.1175566 32.8947805,57.6065611 32.9719024,58.5434389 C33.2214146,59.6265611 31.8422927,60.5131674 30.9621951,59.8550679 C30.1501463,59.4254751 30.1592195,58.0864253 30.9485854,57.6476923 L30.9485854,57.6476923 Z"
       id="path3805"
       fill="#FFFFFF" />
  </g>
  <g
     id="legs">
    <path
       id="left-leg"
       fill="#FF7F14"
       d="M17.2889268,95.1685068 C19.5662927,94.60181 22.3472195,95.3010407 23.5267317,97.4901357 C24.2162927,98.7149321 22.9460488,99.99 21.8799512,100.433303 C21.2493659,100.063122 20.4962927,99.3821719 19.8158049,100.076833 C19.1942927,100.66181 18.6,100.058552 18.0556098,99.6838009 C17.1573659,99.958009 16.0277561,100.780633 15.2565366,99.8026244 C14.2857073,99.2222172 14.5669756,98.0294118 14.5442927,97.0788235 C15.5060488,96.5166968 16.3498537,95.7717647 17.2889268,95.1685068 L17.2889268,95.1685068 Z" />
    <path
       id="right-leg"
       fill="#FF7F14"
       d="M27.7276098,97.0879638 C28.698439,96.5304072 29.5921463,95.849457 30.4041951,95.0679638 C33.0354146,94.6338009 36.138439,95.4929864 37.1092683,98.2624887 C36.6782927,98.8977376 36.2881463,99.5649774 35.8027317,100.159095 C34.9770732,100.524706 34.1559512,99.6061086 33.3076098,99.8940271 C32.5182439,100.241357 31.7334146,99.9854299 30.9485854,99.8163348 C30.1093171,100.008281 29.0885854,100.725792 28.4262439,99.788914 C27.5007805,99.1902262 27.7865854,98.0202715 27.7276098,97.0879638 L27.7276098,97.0879638 Z" />
  </g>
  <g
     id="remote-control-waves"
     style="fill:#afdfec;fill-opacity:1"
    >
    <path
       id="path4678"
       d="m 47.274005,34.279564 c 0.694561,1.102555 0.801417,2.914242 0.801417,2.914242 0.286567,3.239667 3.322237,7.319606 7.577031,7.543032 0,0 1.782545,0.169997 2.928814,0.801416 2.661674,1.457122 -1.301695,6.163623 -9.913282,-1.393979 -7.387605,-8.951582 -2.744245,-12.001822 -1.39398,-9.864711 z"
       style="stroke-width:0.04857071;fill:#afdfec;fill-opacity:1" />
    <path
       id="path4676"
       d="m 51.601656,31.705316 c 0.233139,-0.233139 1.185125,-0.407994 1.665975,0.07286 0.660562,0.655705 0.495421,2.078827 0.495421,2.078827 0.05343,0.995699 0.699418,2.28768 1.826259,3.404806 1.12684,1.117127 2.418821,1.763117 3.419378,1.816545 0,0 1.432836,-0.16514 2.08854,0.490564 0.48085,0.475993 0.305996,1.427979 0.07286,1.661118 -0.233139,0.23314 -2.583961,1.991399 -7.178751,-2.379964 -4.69193,-4.871643 -2.622818,-6.91647 -2.389678,-7.144752 z"
       style="stroke-width:0.04857071;fill:#afdfec;fill-opacity:1" />
  </g>
  <g
     id="remote-control"
    >
    <path
       id="path4674"
       d="M 78.990234 0.83789062 C 78.605311 0.83789062 78.221587 0.98396647 77.927734 1.2753906 L 53.460938 25.619141 C 52.873232 26.20199 52.873232 27.148623 53.460938 27.736328 L 65.158203 39.378906 C 65.745908 39.961755 66.69745 39.961755 67.285156 39.378906 L 91.75 15.035156 C 92.337706 14.447451 92.337706 13.500817 91.75 12.917969 L 80.054688 1.2753906 C 79.760835 0.9839665 79.375157 0.83789065 78.990234 0.83789062 z M 78.970703 5.7226562 C 79.761798 5.7141563 80.549065 6.0070467 81.146484 6.5996094 C 82.341324 7.7895918 82.318734 9.7359023 81.099609 10.945312 C 79.880484 12.159581 77.921403 12.179267 76.726562 10.994141 C 75.531723 9.8090156 75.556266 7.8627052 76.775391 6.6484375 C 77.384953 6.0413035 78.179608 5.7311562 78.970703 5.7226562 z M 84.195312 10.923828 C 84.988836 10.917757 85.780535 11.213127 86.382812 11.810547 C 87.58251 13.005387 87.568734 14.963466 86.349609 16.177734 C 85.130485 17.392002 83.167445 17.405777 81.962891 16.210938 C 80.763195 15.016097 80.778922 13.059971 81.998047 11.845703 C 82.607609 11.238569 83.401789 10.9299 84.195312 10.923828 z M 73.628906 11.048828 C 74.416359 11.042757 75.201409 11.335172 75.798828 11.927734 C 76.993667 13.112859 76.975035 15.055213 75.765625 16.259766 C 74.551358 17.46432 72.604045 17.478094 71.414062 16.292969 C 70.219223 15.107844 70.237855 13.165489 71.447266 11.960938 C 72.051971 11.358657 72.841454 11.0549 73.628906 11.048828 z M 78.847656 16.246094 C 79.638145 16.243665 80.428973 16.541252 81.03125 17.138672 C 82.235804 18.333512 82.225035 20.281774 81.015625 21.486328 C 79.801357 22.69088 77.849084 22.694839 76.644531 21.5 C 75.444833 20.305161 75.450745 18.358851 76.660156 17.154297 C 77.26729 16.552021 78.057168 16.248522 78.847656 16.246094 z M 66.365234 19.798828 C 68.112566 19.78365 69.854658 20.43178 71.175781 21.748047 C 73.818028 24.375722 73.784568 28.679223 71.09375 31.355469 C 68.402933 34.031715 64.079747 34.070033 61.4375 31.4375 C 58.795253 28.809825 58.83357 24.506324 61.519531 21.830078 C 62.86494 20.491955 64.617903 19.814007 66.365234 19.798828 z "
       style="stroke-width:0.04857071;fill:#512d14;fill-opacity:1" />
    <path
       id="path4"
       d="m 68.883114,24.031144 c 1.466836,1.461978 1.466836,3.832229 0,5.294207 -1.466835,1.461979 -3.851657,1.461979 -5.318493,0 -1.466835,-1.461978 -1.466835,-3.832229 0,-5.294207 1.471693,-1.461978 3.851658,-1.461978 5.318493,0 z"
       style="stroke-width:0.04857071;fill:#ff7f14;fill-opacity:1" />
  </g>
</svg>

<?xml version="1.0" encoding="UTF-8" standalone="no"?>
<svg
   xmlns:dc="http://purl.org/dc/elements/1.1/"
   xmlns:cc="http://creativecommons.org/ns#"
   xmlns:rdf="http://www.w3.org/1999/02/22-rdf-syntax-ns#"
   xmlns:svg="http://www.w3.org/2000/svg"
   xmlns="http://www.w3.org/2000/svg"
   xmlns:sodipodi="http://sodipodi.sourceforge.net/DTD/sodipodi-0.dtd"
   xmlns:inkscape="http://www.inkscape.org/namespaces/inkscape"
   viewBox="0 0 93 101"
   version="1.1"
   id="svg32"
   sodipodi:docname="nightwatch-api-logo.svg"
   inkscape:version="0.92.3 (2405546, 2018-03-11)">
  <metadata
     id="metadata38">
    <rdf:RDF>
      <cc:Work
         rdf:about="">
        <dc:format>image/svg+xml</dc:format>
        <dc:type
           rdf:resource="http://purl.org/dc/dcmitype/StillImage" />
      </cc:Work>
    </rdf:RDF>
  </metadata>
  <defs
     id="defs36" />
  <sodipodi:namedview
     pagecolor="#ffffff"
     bordercolor="#666666"
     borderopacity="1"
     objecttolerance="10"
     gridtolerance="10"
     guidetolerance="10"
     inkscape:pageopacity="0"
     inkscape:pageshadow="2"
     inkscape:window-width="1366"
     inkscape:window-height="705"
     id="namedview34"
     showgrid="false"
     inkscape:zoom="7.5331376"
     inkscape:cx="44.119341"
     inkscape:cy="27.179282"
     inkscape:window-x="-8"
     inkscape:window-y="-8"
     inkscape:window-maximized="1"
     inkscape:current-layer="body" />
  <g
     id="body">
    <path
       d="m 23.40878,39.659638 c 0.961757,-1.919457 2.218391,-4.03086 4.604635,-4.190815 -0.444586,0.808915 -0.993513,1.553847 -1.583269,2.262218 -0.01361,0.918597 -0.01815,1.837194 -0.0045,2.755792 1.365512,-0.804344 2.635756,-2.6781 4.405024,-2.01543 -0.340244,1.462443 -1.864536,2.413031 -1.887219,4.03543 1.778341,0.479864 3.475024,1.206515 5.108195,2.056561 2.136731,-0.685521 4.187268,-1.626969 6.346683,-2.221086 0.639658,-0.246788 1.510683,-0.07769 1.782878,0.616968 0.05444,2.915747 -0.934537,5.749231 -0.920927,8.660407 0.580683,1.503575 1.515219,2.838055 2.123122,4.332489 1.034341,2.193665 1.465317,4.606697 2.372634,6.850633 1.057024,7.325928 0.576146,15.031177 -2.59039,21.804118 -1.233952,2.929457 -3.266342,5.38362 -5.071903,7.961177 -1.27478,0.662669 -2.381707,1.599547 -3.511317,2.481583 -8.81108,3.65881 -9.004102,3.648065 -17.697219,0.0041 C 15.26561,93.838597 13.795756,92.444706 12.185268,91.22448 10.23,88.144208 8.1477073,85.082217 7.0725366,81.549502 5.1263415,76.161312 5.1172683,70.343529 5.4121463,64.690271 6.1470732,62.514887 6.4419512,60.206968 7.254,58.054434 7.7666341,56.486878 8.6149756,55.051855 9.1366829,53.488869 8.9416098,49.745928 7.9254146,46.071539 7.9662439,42.310317 c 3.1574631,-0.187376 5.8431221,1.855475 8.8508781,2.463303 2.095902,-0.840905 4.101073,-1.924027 6.324,-2.413032 -0.95722,-1.261357 -3.261805,-2.271357 -2.408927,-4.149683 0.898244,0.466154 1.796488,0.941448 2.676585,1.448733 z"
       id="path3787"
       style="fill:#512d14"
       inkscape:connector-curvature="0"
       sodipodi:nodetypes="cccccccccccccccccccccccccc" />
    <path
       d="M14.7121463,50.5457014 C19.2986341,48.9918552 24.234439,52.2412217 25.6725366,56.6651131 C26.8339024,54.1743891 28.5940976,51.779638 31.2343902,50.7787783 C34.4825854,49.389457 38.424878,50.4862896 40.7158537,53.1278281 C44.7398049,57.4968778 44.4449268,65.1472851 39.9582439,69.0867421 C38.579122,70.3846606 36.750878,71.0107692 34.9271707,71.3535294 C38.447561,73.931086 40.7067805,78.3184163 40.1850732,82.7423077 C39.6452195,88.7474661 34.3419512,93.5186878 28.5396585,94.2361991 C22.2837073,95.2690498 15.3427317,91.6906335 13.2241463,85.5255204 C11.3097073,80.4252489 13.5099512,74.4520814 17.8514634,71.37181 C14.1405366,71.4906335 10.5883902,69.2238462 9.06863415,65.8236652 C6.28317073,60.3852036 8.66941463,52.4697285 14.7121463,50.5457014 L14.7121463,50.5457014 Z"
       id="path3789"
       fill="#FFFFFF" />
    <path
       id="beak"
       d="M22.986878,64.8959276 C24.3841463,63.7671041 26.6206829,63.6482805 28.1041463,64.6628507 C28.8662927,65.1838462 29.5966829,65.750543 30.3769756,66.2532579 C30.3497561,66.8428054 30.3225366,67.4369231 30.2998537,68.0264706 C29.0613659,69.2284163 27.9181463,70.530905 26.6161463,71.6642986 C26.1125854,72.180724 25.1689756,72.080181 24.7062439,71.5500452 C23.5993171,70.5171946 22.5286829,69.4477828 21.498878,68.34181 C20.9045854,67.839095 21.0905854,66.9799095 21.2448293,66.32181 C21.8119024,65.8373756 22.3835122,65.348371 22.986878,64.8959276 L22.986878,64.8959276 Z"
       fill="#FF7F14" />
    <path
       id="left-wing"
       d="M2.21385366,77.7060181 C1.41541463,73.158733 2.65843902,68.3646606 5.41214634,64.6902715 C5.11726829,70.3435294 5.12634146,76.1613122 7.07253659,81.5495023 C8.14770732,85.0822172 10.23,88.1442081 12.1852683,91.2244796 C7.16780488,88.4321267 3.17560976,83.4780995 2.21385366,77.7060181 L2.21385366,77.7060181 Z"
       fill="#7A441E" />
    <path
       id="right-wing"
       d="M45.756,62.8028054 C50.1519512,67.0941629 51.9302927,73.899095 50.088439,79.7991403 C48.3327805,85.648914 43.5466829,90.1550679 38.0937073,92.5680995 C39.8992683,89.990543 41.9316585,87.5363801 43.1656098,84.6069231 C46.3321463,77.8339819 46.8130244,70.128733 45.756,62.8028054 L45.756,62.8028054 Z"
       fill="#7A441E" />
  </g>
  <g
     id="eyes">
    <path
       d="M27.6232683,57.1449774 C28.4670732,54.709095 31.1300488,52.7804977 33.720439,53.7219457 C37.6944878,55.2346606 38.6244878,60.8285068 36.456,64.1875566 C35.3037073,66.2852489 32.5545366,67.2586878 30.3769756,66.2532579 C29.5966829,65.750543 28.8662927,65.1838462 28.1041463,64.6628507 C27.3465366,62.2543891 26.4709756,59.59 27.6232683,57.1449774 L27.6232683,57.1449774 Z"
       id="path3795"
       fill="#AFDFEC" />
    <path
       d="M16.4950244,54.608552 C18.9447805,53.3700452 21.9207805,54.8507692 22.9732683,57.2592308 C24.2661951,59.6494118 23.6446829,62.418914 22.986878,64.8959276 C22.3835122,65.348371 21.8119024,65.8373756 21.2448293,66.32181 C19.6479512,67.7248416 17.0847805,67.5968778 15.5287317,66.2029864 C12.0763902,63.2780995 12.4756098,56.8342081 16.4950244,54.608552 L16.4950244,54.608552 Z"
       id="path3797"
       fill="#AFDFEC" />
    <path
       d="M17.4885366,56.9621719 C20.0199512,55.9978733 22.0115122,58.9456109 21.7665366,61.239819 C21.8209756,63.3557919 20.0517073,65.9150679 17.7153659,65.2386878 C14.4081951,63.9864706 14.3265366,58.4474661 17.4885366,56.9621719 L17.4885366,56.9621719 Z"
       id="path3799"
       fill="#000000" />
    <path
       d="M31.4793659,56.9164706 C33.8066341,56.1258371 35.657561,58.7079638 35.6258049,60.8239367 C35.8118049,62.9627602 34.2421463,65.7642534 31.8014634,65.2935294 C28.2266341,64.2880995 28.0950732,58.278371 31.4793659,56.9164706 L31.4793659,56.9164706 Z"
       id="path3801"
       fill="#000000" />
    <path
       d="M18.2642927,57.739095 C19.6207317,56.5097285 21.4172195,58.9044796 19.8657073,59.8550679 C18.5500976,60.8147964 17.034878,58.7399548 18.2642927,57.739095 L18.2642927,57.739095 Z"
       id="path3803"
       fill="#FFFFFF" />
    <path
       d="M30.9485854,57.6476923 C31.697122,57.1175566 32.8947805,57.6065611 32.9719024,58.5434389 C33.2214146,59.6265611 31.8422927,60.5131674 30.9621951,59.8550679 C30.1501463,59.4254751 30.1592195,58.0864253 30.9485854,57.6476923 L30.9485854,57.6476923 Z"
       id="path3805"
       fill="#FFFFFF" />
  </g>
  <g
     id="legs">
    <path
       id="left-leg"
       d="m 17.288927,95.168507 c 2.277366,-0.566697 5.058293,0.132534 6.237805,2.321629 0.689561,1.224796 -0.580683,2.499864 -1.646781,2.943164 -0.630585,-0.37018 -1.383658,-1.051128 -2.064146,-0.35647 -0.621512,0.58498 -1.215805,-0.0183 -1.760195,-0.393029 -0.898244,0.274208 -2.027854,1.096829 -2.799073,0.118823 -0.97083,-0.580407 -0.689561,-1.773212 -0.712244,-2.723801 0.961756,-0.562126 1.805561,-1.307058 2.744634,-1.910316 z"
       style="fill:#ff7f14" />
    <path
       id="right-leg"
       d="m 27.72761,97.087964 c 0.970829,-0.557557 1.864536,-1.238507 2.676585,-2.02 2.63122,-0.434163 5.734244,0.425022 6.705073,3.194525 -0.430975,0.635249 -0.821122,1.302488 -1.306536,1.896601 -0.825659,0.36562 -1.646781,-0.552981 -2.495122,-0.265063 -0.789366,0.347333 -1.574195,0.0914 -2.359025,-0.07769 -0.839268,0.191943 -1.86,0.909453 -2.522341,-0.02742 -0.925464,-0.598688 -0.639659,-1.768642 -0.698634,-2.70095 z"
       style="fill:#ff7f14" />
  </g>
  <g
     id="remote-control-waves"
     style="fill:#afdfec;fill-opacity:1">
    <path
       id="path4678"
       d="m 47.274005,34.279564 c 0.694561,1.102555 0.801417,2.914242 0.801417,2.914242 0.286567,3.239667 3.322237,7.319606 7.577031,7.543032 0,0 1.782545,0.169997 2.928814,0.801416 2.661674,1.457122 -1.301695,6.163623 -9.913282,-1.393979 -7.387605,-8.951582 -2.744245,-12.001822 -1.39398,-9.864711 z"
       style="stroke-width:0.04857071;fill:#afdfec;fill-opacity:1" />
    <path
       id="path4676"
       d="m 51.601656,31.705316 c 0.233139,-0.233139 1.185125,-0.407994 1.665975,0.07286 0.660562,0.655705 0.495421,2.078827 0.495421,2.078827 0.05343,0.995699 0.699418,2.28768 1.826259,3.404806 1.12684,1.117127 2.418821,1.763117 3.419378,1.816545 0,0 1.432836,-0.16514 2.08854,0.490564 0.48085,0.475993 0.305996,1.427979 0.07286,1.661118 -0.233139,0.23314 -2.583961,1.991399 -7.178751,-2.379964 -4.69193,-4.871643 -2.622818,-6.91647 -2.389678,-7.144752 z"
       style="stroke-width:0.04857071;fill:#afdfec;fill-opacity:1" />
  </g>
  <g
     id="remote-control">
    <path
       id="path4674"
       d="M 78.990234 0.83789062 C 78.605311 0.83789062 78.221587 0.98396647 77.927734 1.2753906 L 53.460938 25.619141 C 52.873232 26.20199 52.873232 27.148623 53.460938 27.736328 L 65.158203 39.378906 C 65.745908 39.961755 66.69745 39.961755 67.285156 39.378906 L 91.75 15.035156 C 92.337706 14.447451 92.337706 13.500817 91.75 12.917969 L 80.054688 1.2753906 C 79.760835 0.9839665 79.375157 0.83789065 78.990234 0.83789062 z M 78.970703 5.7226562 C 79.761798 5.7141563 80.549065 6.0070467 81.146484 6.5996094 C 82.341324 7.7895918 82.318734 9.7359023 81.099609 10.945312 C 79.880484 12.159581 77.921403 12.179267 76.726562 10.994141 C 75.531723 9.8090156 75.556266 7.8627052 76.775391 6.6484375 C 77.384953 6.0413035 78.179608 5.7311562 78.970703 5.7226562 z M 84.195312 10.923828 C 84.988836 10.917757 85.780535 11.213127 86.382812 11.810547 C 87.58251 13.005387 87.568734 14.963466 86.349609 16.177734 C 85.130485 17.392002 83.167445 17.405777 81.962891 16.210938 C 80.763195 15.016097 80.778922 13.059971 81.998047 11.845703 C 82.607609 11.238569 83.401789 10.9299 84.195312 10.923828 z M 73.628906 11.048828 C 74.416359 11.042757 75.201409 11.335172 75.798828 11.927734 C 76.993667 13.112859 76.975035 15.055213 75.765625 16.259766 C 74.551358 17.46432 72.604045 17.478094 71.414062 16.292969 C 70.219223 15.107844 70.237855 13.165489 71.447266 11.960938 C 72.051971 11.358657 72.841454 11.0549 73.628906 11.048828 z M 78.847656 16.246094 C 79.638145 16.243665 80.428973 16.541252 81.03125 17.138672 C 82.235804 18.333512 82.225035 20.281774 81.015625 21.486328 C 79.801357 22.69088 77.849084 22.694839 76.644531 21.5 C 75.444833 20.305161 75.450745 18.358851 76.660156 17.154297 C 77.26729 16.552021 78.057168 16.248522 78.847656 16.246094 z M 66.365234 19.798828 C 68.112566 19.78365 69.854658 20.43178 71.175781 21.748047 C 73.818028 24.375722 73.784568 28.679223 71.09375 31.355469 C 68.402933 34.031715 64.079747 34.070033 61.4375 31.4375 C 58.795253 28.809825 58.83357 24.506324 61.519531 21.830078 C 62.86494 20.491955 64.617903 19.814007 66.365234 19.798828 z "
       style="stroke-width:0.04857071;fill:#512d14;fill-opacity:1" />
    <path
       id="path4"
       d="m 68.883114,24.031144 c 1.466836,1.461978 1.466836,3.832229 0,5.294207 -1.466835,1.461979 -3.851657,1.461979 -5.318493,0 -1.466835,-1.461978 -1.466835,-3.832229 0,-5.294207 1.471693,-1.461978 3.851658,-1.461978 5.318493,0 z"
       style="stroke-width:0.04857071;fill:#ff7f14;fill-opacity:1" />
  </g>
</svg>
